img/r/recruitee.com.svg

<svg width="32" height="32" viewBox="0 0 32 32" fill="none" xmlns="http://www.w3.org/2000/svg">
<path fill-rule="evenodd" clip-rule="evenodd" d="M25.7725 13.6991C25.7531 13.6991 25.7339 13.6997 25.7145 13.6999C24.3344 9.60141 20.4597 6.64964 15.8953 6.64964C11.3305 6.64964 7.45554 9.60197 6.07576 13.7011C2.80859 13.7815 0.184753 16.4547 0.184753 19.7408C0.184753 21.4289 0.877421 22.955 1.9938 24.0512C2.11687 24.172 2.31077 24.1839 2.44671 24.0777C2.59463 23.9621 2.75717 23.8431 2.93455 23.7234C3.50773 23.2969 4.29392 22.9216 5.01375 22.6605C5.1104 22.6268 5.57238 22.3752 5.31473 21.6973C4.65239 21.019 4.15112 19.922 4.15112 18.8431C4.15112 17.19 5.24374 16.323 6.52361 16.323C7.80143 16.323 8.90062 17.19 8.90062 18.8431C8.90062 19.9185 8.39731 21.0109 7.73652 21.6893H7.74053C7.48893 22.4577 7.89404 22.6408 7.95695 22.6605C8.17984 22.7345 8.40701 22.8189 8.63162 22.912C8.7456 22.9592 8.77407 23.1088 8.68529 23.1945C8.07985 23.7789 7.72665 24.5237 7.54115 25.0438C7.48039 25.2142 7.69048 25.3504 7.82238 25.2266C8.26883 24.8075 8.86488 24.3077 9.61491 23.8018C10.6008 23.0682 11.953 22.4226 13.1911 21.9736C13.3573 21.9156 14.1519 21.4828 13.7087 20.3169C12.5695 19.1503 11.7074 17.2635 11.7074 15.4078C11.7074 12.5646 13.5867 11.0734 15.7879 11.0734C17.9858 11.0734 19.8763 12.5646 19.8763 15.4078C19.8763 17.2574 19.0106 19.1364 17.8741 20.3031H17.881C17.4482 21.6247 18.1451 21.9398 18.2533 21.9736C19.5152 22.3925 20.8593 23.0035 21.855 23.7115C22.6877 24.2244 23.3608 24.7486 23.8784 25.2056C24.0122 25.3237 24.2149 25.1863 24.1551 25.018C23.9709 24.5 23.6086 23.7373 22.9853 23.1475C22.8952 23.0623 22.9234 22.9128 23.0373 22.8639C23.2286 22.7816 23.4203 22.706 23.6076 22.6381C23.7045 22.6043 24.1681 22.3518 23.9096 21.6717C23.245 20.9912 22.7421 19.8905 22.7421 18.8081C22.7421 17.1496 23.8383 16.2796 25.1224 16.2796C26.4045 16.2796 27.5073 17.1496 27.5073 18.8081C27.5073 19.887 27.0024 20.9831 26.3394 21.6637H26.3434C26.0909 22.4346 26.4974 22.6184 26.5605 22.6381C27.6164 22.9886 28.771 23.5696 29.2827 24.2175C29.405 24.3725 29.6334 24.3923 29.7811 24.2612C31.0287 23.1545 31.8152 21.5396 31.8152 19.7408C31.8152 16.4041 29.1098 13.6991 25.7725 13.6991" fill="#1999E3"/>
</svg>

<svg xmlns="http://www.w3.org/2000/svg" viewBox="0 0 32 32"><path d="M25.77 13.7h-.06a10.36 10.36 0 00-19.63 0 6.04 6.04 0 00-4.09 10.35c.13.12.32.13.46.03a8.53 8.53 0 012.57-1.42c.09-.03.55-.28.3-.96a4.28 4.28 0 01-1.17-2.86c0-1.65 1.1-2.52 2.37-2.52 1.28 0 2.38.87 2.38 2.52 0 1.08-.5 2.17-1.16 2.85-.25.77.15.95.22.97.22.07.45.16.67.25.12.05.14.2.06.28a4.9 4.9 0 00-1.15 1.85c-.06.17.15.31.28.19.45-.42 1.04-.92 1.8-1.43.98-.73 2.33-1.38 3.57-1.83.17-.05.96-.49.52-1.65a7.36 7.36 0 01-2-4.91c0-2.85 1.88-4.34 4.08-4.34s4.09 1.5 4.09 4.34c0 1.85-.87 3.73-2 4.9-.43 1.31.27 1.63.37 1.66 1.27.42 2.6 1.03 3.6 1.74.84.51 1.51 1.04 2.03 1.5.13.11.33-.02.28-.2a4.87 4.87 0 00-1.17-1.86.17.17 0 01.05-.29l.57-.22c.1-.04.56-.29.3-.97a4.3 4.3 0 01-1.17-2.86c0-1.66 1.1-2.53 2.38-2.53 1.28 0 2.39.87 2.39 2.53a4.3 4.3 0 01-1.17 2.85c-.25.77.16.96.22.98 1.06.35 2.21.93 2.72 1.58.13.15.35.17.5.04a6.03 6.03 0 00-4-10.56" fill="#1999E3"/></svg>
</svg>
